X:31
T:Quen a omagen da Virgen (Cantiga 353)
C:Las Cantigas de Santa Maria, 1252
C:Alphonso X, El Sabio, (1221-1284)
C:arr. Steve Hendricks
R:Cantigas
M:C
L:1/4
K:C
V:1
DA | A>G FF/G/ | A!breath!D DA | A>G F/E/D | !breath!F2DA |
A>GFF/G/ | A!breath!D FA | A>G F/E/ D/C/ | !breath!D2 AB | G>A Bc/B/ |
AG AA/_B/ | A>G FG | !breatyh!F2 AB | G>A Bc/B/ | AG AA/_B/ |
A>G F/E/ D/C/ | !breath!D2 DA | A>G FF/G/ | A!breath!D DA | A>G F/E/D |
!breath!F2 DA | A>G FF/G/ | A!breath!D FA | A>G F/E/ D/C/ | D2 |]
V:2
AF | F>G AA/G/ | F/G/A AA/G/ | F>G A/G/F | A2 AF/E/ |
DF/G/ AA/G/ | F/G/ A AD | C>C AF/G/ | A2 FG | B>A GG |
EE FF | FGAA | A2FG | B>A GG | EE FF |
FGAF | A2Ad | d>edA | Ad ff/e/ | d>G AA |
d2DA | A>G AA/G/ | AdAf | d>G AF/E/ | D2 |]
V:3
D2 | D>E D>C | D>DD>D | D>ED>D | D>DD>E |
D/E/FD>C | D/E/DDF | E>EDA, | D2DD | E>EE>E |
C2D>D | DED>C | D2DD | E>EE>E | C2D>D |
DEDA, | D2DD/E/ | F/G/ADD/E/ | F/E/DDD/E/ | F>EDF/E/ |
D2DD/D/ | D/E/ F/E/ D D/E/ | FDD>E | F>EDA, | D2 |]
V:4
D,2 | D,>E, D,>C, | D,>D,D,>D, | D,>E,D,>D, | D,>D,D,>E, |
D,/E,/F,D,>C, | D,/E,/D,D,F, | E,>E,D,A,, | D,2D,D, | E,>E,E,>E, |
C,2D,>D, | D,E,D,>C, | D,2D,D, | E,>E,E,>E, | C,2D,>D, |
D,E,D,A,, | D,2D,D,/E,/ | F,/G,/A,D,D,/E,/ | F,/E,/D,D,D,/E,/ | F,>E,D,F,/E,/ |
D,2D,D,/D,/ | D,/E,/ F,/E,/ D, D,/E,/ | F,D,D,>E, | F,>E,D,A,, | D,2 |]






